X:1
T:The Baby in the Pothole
R:Reel
C:Paddy Cummins
M:4/4
L:1/8
K:F
|:"F"FDCF "F/D"DCA,C|"F"DFFA "Gm7"~G2 FG|"F"Accd "F6"cdfd|"F"cAFA "C7"GcAG|
|"F"FDCF "F/D"DCA,C|"F"DFFA "Gm7"~G2 FD|"Amin7"CA, ~A,2 "Bb"CEFA|1 "C7"GEEG "F"F3 G:|2 "C7"GEEG "F"FFEF|

|:"D5"D3 C ~D2 FG|Adde "Dm"f3 g|"Gmin7"afge "Bb"fdcA|"Amin7"AGED CG,A,C|
|"D5"D2 ^CE "A5"DA, ~A,2|"D"D^CDE "Dmin"FFFG|"C"Adde dcAG|1 "A"FGEC "D5"DCA,C:|2"Bb"FAGE "C7"cAGE|
